app/img/iskra.svg

<svg width="87" height="61" viewBox="0 0 87 61" fill="none" xmlns="http://www.w3.org/2000/svg">
<path d="M85.3683 30.0769C85.5701 31.9371 82.8892 34.7757 80.4877 34.772C78.7972 34.772 76.6552 33.9852 76.3643 30.8322C75.8357 25.1104 79.5646 21.0776 79.5034 20.5214C79.4422 19.9652 78.3911 19.4202 77.8068 19.4835C77.8068 19.4835 77.7644 19.5263 77.688 19.6081C77.3468 18.4566 75.6933 17.9079 74.7029 17.9805C73.2457 18.0902 71.3655 20.2907 70.5073 21.9854C69.8823 22.0728 69.2689 22.2243 68.6749 22.4373C69.118 19.1151 67.6736 18.306 66.2183 18.4641C65.3006 18.5544 64.4187 18.8707 63.652 19.3849C63.6677 19.2883 63.6714 19.1903 63.6635 19.0928C63.5835 18.3488 61.0268 17.3908 61.1287 18.3488C61.3141 20.0229 57.0496 25.8823 55.2937 31.7102C55.0972 31.8404 55.0304 31.8237 54.7986 31.7604C53.9216 31.5205 53.1132 28.8828 52.2381 27.9843C53.6546 27.2607 58.3735 22.7982 58.4958 20.9343C58.5403 20.2591 56.1541 18.7022 55.8444 19.6565C55.2882 21.3734 52.188 25.8619 50.2819 26.725C51.1293 23.7804 52.6126 21.1632 52.5922 20.9772C52.5533 20.6051 51.0829 20.0359 50.0427 20.2015C49.6237 20.2684 48.2572 23.4251 47.4469 25.7391C45.3517 29.1283 38.6638 36.8405 38.0853 36.9C37.6626 36.9465 37.3863 35.9011 37.3863 34.9357C37.3863 29.7756 42.6484 24.0947 44.6916 23.8734C45.2479 23.812 46.3177 24.7458 46.2157 23.8046C46.0711 22.4634 44.4358 21.6598 43.4215 21.7026C39.3591 21.8737 35.7527 26.4999 34.5976 29.1897C33.1142 31.7622 27.9913 37.964 26.2539 40.2333C26.2307 40.2637 26.1982 40.2856 26.1614 40.2957C26.1246 40.3058 26.0855 40.3035 26.0502 40.2891C26.0148 40.2747 25.9851 40.2492 25.9656 40.2163C25.9461 40.1833 25.938 40.1449 25.9424 40.1069C26.9158 32.1287 34.0302 24.3812 34.0358 23.4939C34.0358 22.7071 32.5154 22.1397 31.1229 22.2904C29.4245 22.4764 17.8842 39.1005 14.1555 42.8673C14.118 42.9048 14.0704 42.9304 14.0185 42.9411C13.9666 42.9517 13.9127 42.9467 13.8636 42.927C13.8145 42.9072 13.7722 42.8733 13.742 42.8297C13.7119 42.786 13.6951 42.7345 13.6938 42.6813C13.3842 32.5807 34.3714 13.1869 34.5068 11.5853C34.5957 10.5194 32.113 9.72511 30.9023 9.76233C21.7168 10.0525 0.123291 27.6644 0.123291 31.911C0.123291 33.9572 3.71665 36.634 3.69625 35.317C3.61838 30.6667 24.0623 11.6727 30.55 11.9796C28.2527 13.425 7.91262 31.4311 7.04483 44.3573C6.78898 48.1706 10.0449 49.1156 12.2662 49.1156C13.7791 49.1156 15.4664 48.152 22.2637 37.3966C22.0654 38.2318 21.8281 40.3636 21.8762 40.8231C22.0746 42.6553 24.6909 43.7137 26.3095 43.5091C27.1254 43.4086 30.5741 38.0793 33.2756 34.5804C33.22 37.3186 34.9332 39.6028 38.6786 39.2047C40.4345 39.0187 44.8214 32.9695 46.0952 30.568C45.7745 31.9129 45.1311 33.5722 45.2368 34.5488C45.2831 34.9859 48.3888 36.926 48.183 35.0026C48.0643 33.9051 48.9247 31.4684 49.4679 29.3385C51.2016 29.8835 51.539 35.1831 54.4946 34.8631L54.5873 34.8297C54.3611 36.1206 54.2164 37.1976 54.3499 38.4048C54.4186 39.0373 54.8134 39.2233 54.9896 39.7069C35.6823 42.073 10.5196 53.8441 5.21851 55.0829C3.2531 55.5386 3.14185 54.5528 2.80811 55.0011C1.89401 56.2064 4.96633 61.262 7.91813 60.8419C16.4936 59.6217 33.8077 45.745 57.8543 41.6471L57.6689 40.5831C57.3574 27.9341 65.2988 19.8499 66.1183 20.527C66.4893 20.8414 66.4244 21.9649 66.0995 23.6223C62.9701 26.1353 60.1516 29.2399 60.515 32.6217C60.5744 33.1797 60.9323 35.0528 62.7397 34.7925C65.3691 34.4204 67.6403 28.494 68.4307 24.2008C68.8325 23.8797 69.2883 23.6322 69.7763 23.4698C69.3277 24.7718 68.8495 25.9177 68.8495 27.6979C68.8495 28.3024 68.8774 31.6228 71.5807 31.6228C72.5075 31.6228 73.3791 30.9717 74.2022 30.0231C74.5471 33.0346 75.8709 34.599 77.5971 35.7132C73.5009 36.0813 69.4332 36.7214 65.4213 37.6292C64.0751 37.7761 64.0617 40.2334 64.5939 40.3636C76.6612 37.3743 82.6407 37.6571 83.959 37.458C84.5688 37.3669 84.2221 36.6433 83.6475 35.743C86.1986 34.5562 86.6138 32.5807 86.7993 31.8181C87.1703 30.1942 85.2937 29.3813 85.3683 30.0769ZM62.4749 33.336C62.3227 33.3527 62.2118 32.9639 62.1742 32.6179C62.0263 31.2488 63.5447 28.4829 65.5122 25.9847C64.529 29.4873 63.1683 33.2597 62.4749 33.336ZM71.6637 29.584C71.3952 29.625 71.2637 29.1711 71.2449 28.8791C70.9855 24.7179 74.3616 20.2201 75.3745 19.9076C76.0679 19.6937 76.3588 20.0936 76.394 20.4135C76.4146 20.6181 76.8019 20.4563 77.0352 20.5995C76.6334 21.1446 75.869 22.3834 75.7375 22.6457C74.5586 24.6807 72.439 29.4687 71.6637 29.584Z" fill="white"/>
<path d="M57.2787 0.560376C57.916 0.85777 59.1192 3.65718 58.957 4.76128C57.9914 11.3128 40.5112 9.98439 37.5698 16.7372C36.7007 18.737 35.4241 16.308 35.8143 15.3588C38.5316 8.76986 55.2103 6.93563 56.2744 1.17118C56.398 0.501597 56.8133 0.344899 57.2787 0.560376Z" fill="white"/>
<path d="M64.9467 10.2653C64.9907 10.2341 65.04 10.2119 65.0917 10.1998C65.1423 10.1859 65.1946 10.179 65.2463 10.1792C65.345 10.1779 65.4425 10.199 65.5322 10.241C65.6172 10.2839 65.6903 10.3482 65.745 10.4281L66.2248 9.98839C66.173 9.92252 66.1118 9.86515 66.0428 9.81811C65.9703 9.76778 65.8924 9.72631 65.8104 9.69463C65.7254 9.66032 65.638 9.63463 65.5483 9.61793C65.4603 9.60013 65.3705 9.59133 65.2814 9.59169C65.1209 9.59078 64.9615 9.61475 64.8082 9.66282C64.6685 9.70772 64.5377 9.77738 64.4212 9.86863C64.3118 9.95628 64.2226 10.0674 64.159 10.1942C64.0942 10.3263 64.0609 10.4726 64.0627 10.6207C64.0604 10.731 64.08 10.8406 64.121 10.9426C64.1567 11.0288 64.2084 11.107 64.2738 11.1727C64.3403 11.2382 64.4164 11.2925 64.4991 11.3336C64.59 11.3798 64.6833 11.4198 64.779 11.4533C64.9003 11.4916 65.0145 11.5484 65.1191 11.6217C65.1595 11.6495 65.1928 11.6875 65.2148 11.7321C65.2368 11.7765 65.2481 11.8261 65.2463 11.8761C65.2487 11.9368 65.2344 11.9968 65.2065 12.0502C65.1803 12.0975 65.1434 12.1379 65.0995 12.168C65.0519 12.1999 64.9984 12.2222 64.9431 12.2335C64.8831 12.2472 64.8224 12.2541 64.7612 12.2541C64.6376 12.253 64.5163 12.2229 64.4063 12.1662C64.3005 12.1163 64.2096 12.0382 64.143 11.9398L63.6193 12.3776C63.6811 12.4581 63.7548 12.5287 63.8374 12.5871C63.923 12.6493 64.0158 12.7002 64.1139 12.7387C64.2143 12.7782 64.3183 12.8083 64.4248 12.8285C64.5318 12.8478 64.6399 12.8579 64.7481 12.8584C64.8962 12.8583 65.0436 12.8388 65.1862 12.8004C65.3295 12.7635 65.465 12.7001 65.5863 12.6133C65.7058 12.5299 65.8051 12.4199 65.8776 12.2915C65.9555 12.1456 65.9947 11.9809 65.9905 11.8144C65.9923 11.7076 65.9739 11.6015 65.9359 11.502C65.8984 11.4089 65.8431 11.3243 65.7742 11.2532C65.6957 11.1791 65.6083 11.1163 65.5138 11.0661C65.4014 11.0056 65.2843 10.9537 65.1648 10.9108C65.065 10.8783 64.9705 10.8303 64.8849 10.7686C64.8528 10.745 64.8272 10.7138 64.8094 10.6776C64.7921 10.6414 64.7838 10.6013 64.7844 10.5609C64.7826 10.5007 64.7981 10.4412 64.8302 10.3907C64.8587 10.34 64.8985 10.2971 64.9467 10.2653ZM66.4251 9.66656L66.3139 10.2933H67.1574L66.7378 12.7686H67.4434L67.869 10.2933H68.6941L68.7999 9.66656H66.4251ZM70.9364 9.66656L70.6088 11.5544C70.5957 11.6338 70.5767 11.7121 70.5512 11.7882C70.5256 11.8644 70.4876 11.9354 70.4382 11.9977C70.3853 12.0627 70.3199 12.1151 70.2456 12.1512C70.1529 12.1939 70.0524 12.2143 69.9508 12.2111C69.8711 12.213 69.7915 12.1996 69.716 12.1718C69.6559 12.1493 69.6018 12.1128 69.5578 12.0651C69.5186 12.0202 69.4889 11.9673 69.4711 11.9098C69.452 11.8493 69.4431 11.7862 69.4437 11.7228C69.4437 11.6966 69.4437 11.6685 69.4437 11.6348C69.4455 11.604 69.4491 11.5734 69.4544 11.5431L69.7784 9.67218H69.0746L68.7434 11.618C68.7434 11.661 68.7327 11.7059 68.7286 11.7527C68.725 11.7995 68.7286 11.8424 68.7286 11.8836C68.7268 12.0229 68.7547 12.161 68.8106 12.2878C68.8659 12.4067 68.9473 12.5106 69.049 12.5909C69.1613 12.6769 69.2886 12.7404 69.4235 12.778C69.584 12.8247 69.7498 12.8474 69.9163 12.8453C70.1018 12.8488 70.286 12.819 70.462 12.7574C70.613 12.7033 70.7521 12.6201 70.8728 12.5123C70.9887 12.4076 71.0832 12.2804 71.151 12.1381C71.2247 11.9793 71.2764 11.8105 71.3037 11.6367L71.6349 9.67591L70.9364 9.66656ZM74.2094 9.96778C74.0733 9.86197 73.9181 9.78441 73.7535 9.73952C73.5882 9.69133 73.4176 9.6668 73.2458 9.66656H72.1294L71.5986 12.7686H72.8297C73.0776 12.7709 73.3237 12.7279 73.5567 12.6414C73.7725 12.5627 73.9705 12.4398 74.1387 12.2803C74.3039 12.1231 74.4353 11.9319 74.5245 11.719C74.6196 11.4819 74.6666 11.2272 74.6624 10.9706C74.6683 10.7637 74.6238 10.5587 74.5334 10.3738C74.4537 10.2141 74.3408 10.0747 74.2023 9.96588L74.2094 9.96778ZM73.8641 11.4645C73.8183 11.5963 73.7458 11.7166 73.6518 11.8178C73.5579 11.919 73.4444 11.9988 73.3183 12.0521C73.1703 12.1144 73.0116 12.145 72.8511 12.1418H72.3963L72.7114 10.2896H73.1115C73.2351 10.2872 73.3582 10.3081 73.4747 10.3513C73.5716 10.3875 73.6596 10.4442 73.7333 10.5179C73.801 10.5874 73.8528 10.6718 73.8843 10.7648C73.917 10.861 73.9336 10.9622 73.933 11.0642C73.9312 11.1983 73.9068 11.3311 73.8623 11.4571L73.8641 11.4645ZM74.7533 12.7742H75.4643L75.9952 9.67408H75.2842L74.7533 12.7742ZM78.9228 9.96778C78.7909 9.84399 78.6345 9.75029 78.4645 9.69273C78.2677 9.62466 78.0615 9.59175 77.854 9.59549C77.6073 9.59304 77.3636 9.64344 77.1371 9.74325C76.9249 9.83689 76.7335 9.97371 76.5736 10.1455C76.4154 10.3195 76.2918 10.5234 76.2098 10.7461C76.1206 10.9847 76.076 11.2387 76.079 11.4945C76.0772 11.6864 76.1111 11.877 76.1788 12.0558C76.2436 12.2199 76.3423 12.3675 76.4683 12.488C76.6021 12.6118 76.759 12.7061 76.9302 12.7649C77.1294 12.8314 77.3386 12.8636 77.5485 12.8603C77.7946 12.8636 78.0389 12.8132 78.2648 12.7125C78.4758 12.6188 78.6666 12.482 78.8247 12.3102C78.9829 12.1363 79.1065 11.9323 79.1885 11.7097C79.2753 11.4743 79.3193 11.2243 79.3175 10.9725C79.3199 10.7805 79.286 10.5898 79.2177 10.4112C79.1559 10.24 79.0578 10.0853 78.9306 9.95842L78.9228 9.96778ZM78.5067 11.4645C78.4639 11.6006 78.3973 11.7273 78.31 11.8387C78.2255 11.9487 78.1191 12.0387 77.9973 12.1026C77.8677 12.1695 77.7244 12.2035 77.5794 12.2017C77.4658 12.2042 77.3535 12.1831 77.2483 12.1399C77.1579 12.1023 77.0759 12.0456 77.0081 11.9735C76.9421 11.9028 76.8916 11.8187 76.8589 11.7265C76.8244 11.6288 76.8072 11.5255 76.8084 11.4215C76.8084 11.2746 76.8316 11.1286 76.8773 10.9894C76.9231 10.8538 76.9903 10.7273 77.0771 10.6152C77.1638 10.5066 77.2709 10.4169 77.3921 10.3513C77.5068 10.2927 77.6317 10.2588 77.7595 10.2518C77.8873 10.2447 78.0157 10.2645 78.1358 10.3102C78.2261 10.3476 78.3082 10.4043 78.3759 10.4767C78.4401 10.5489 78.4901 10.6335 78.5228 10.7255C78.5578 10.8226 78.5751 10.9253 78.5739 11.0286C78.5721 11.1718 78.5489 11.3138 78.5049 11.4496L78.5067 11.4645ZM66.8323 8.83402C67.0475 8.75457 67.2454 8.63176 67.4142 8.47286C67.5795 8.31592 67.7109 8.1246 67.7995 7.91158C67.8958 7.67476 67.9427 7.41984 67.938 7.1632C67.9433 6.95574 67.8987 6.75017 67.809 6.56452C67.7299 6.40626 67.617 6.26817 67.4796 6.16039C67.3429 6.0547 67.1878 5.97662 67.0231 5.93026C66.8578 5.88359 66.6872 5.85968 66.516 5.85917H65.3991L64.87 8.95934H66.0993C66.349 8.95702 66.5969 8.90955 66.8305 8.81904L66.8323 8.83402ZM65.9882 6.47844H66.3829C66.5065 6.47638 66.6296 6.49665 66.7467 6.53832C66.843 6.57514 66.931 6.63181 67.0047 6.70485C67.0724 6.77537 67.1242 6.86033 67.1557 6.95366C67.1889 7.04981 67.2056 7.15109 67.205 7.25305C67.2044 7.38944 67.1818 7.52479 67.1378 7.65341C67.0915 7.78516 67.0195 7.90546 66.9256 8.00668C66.8317 8.10785 66.7181 8.18766 66.5921 8.24087C66.4441 8.30326 66.2848 8.33378 66.1249 8.33072H65.6701L65.9882 6.47844ZM68.0236 8.96124H68.7345L69.2654 5.86104H68.5544L68.0236 8.96124ZM70.3728 6.77409C70.4638 6.66602 70.5755 6.57762 70.6998 6.514C70.8282 6.4504 70.9685 6.41715 71.1111 6.41671C71.2372 6.41378 71.3626 6.44336 71.4749 6.50276C71.5677 6.55378 71.6473 6.62691 71.7074 6.71605L72.2222 6.23711C72.1045 6.08032 71.9452 5.96149 71.7638 5.8947C71.5564 5.81443 71.3364 5.77508 71.1147 5.7787C70.8704 5.77587 70.6284 5.82692 70.4055 5.92839C70.1921 6.02493 70.0001 6.16421 69.8402 6.33812C69.6773 6.51417 69.5501 6.72143 69.4651 6.94803C69.3753 7.18669 69.3308 7.44057 69.3326 7.69641C69.3296 7.88883 69.3652 8.07983 69.436 8.25775C69.5032 8.41934 69.603 8.56424 69.729 8.68246C69.8604 8.80277 70.015 8.89439 70.182 8.95188C70.3716 9.01585 70.5708 9.04747 70.7711 9.0454C71.1569 9.04521 71.5374 8.95231 71.8821 8.77408L72.1586 7.13513H70.9292L70.8216 7.73574H71.409L71.3127 8.31763C71.2491 8.35011 71.1813 8.37341 71.1111 8.3868C71.0327 8.40026 70.9536 8.40833 70.8745 8.41115C70.758 8.41298 70.6421 8.39268 70.5327 8.35127C70.4388 8.31421 70.3532 8.25751 70.2819 8.18473C70.2135 8.11237 70.1612 8.02552 70.1291 7.93029C70.094 7.82882 70.0768 7.72179 70.078 7.61415C70.0756 7.30693 70.1802 7.00895 70.3728 6.77409ZM72.3131 8.96307H73.0241L73.5549 5.86104H72.844L72.3131 8.96307ZM74.1642 8.96307H74.8716L75.2955 6.48968H76.1206L76.2282 5.86291H73.8516L73.7422 6.48968H74.5839L74.1642 8.96307ZM77.5336 8.34381L77.6376 8.96124H78.3848L77.8136 5.86104H77.1121L75.1932 8.96307H76.0029L76.3661 8.3457L77.5336 8.34381ZM77.3047 6.65996L77.4629 7.76008H76.6734L77.3047 6.65996ZM79.4721 8.32882L79.8959 5.86291H79.185L78.6541 8.96307H80.5451L80.6545 8.32693L79.4721 8.32882ZM67.1521 3.90962H68.2798L68.3814 3.31092H67.2543L67.3685 2.65047H68.5651L68.6727 2.02932H66.7776L66.2467 5.13136H66.9452L67.1521 3.90962ZM68.6578 4.23891C68.6555 4.3778 68.6846 4.51538 68.7417 4.64117C68.7963 4.7607 68.8784 4.86519 68.98 4.94614C69.093 5.0311 69.2196 5.09447 69.3545 5.13323C69.5138 5.18012 69.6791 5.2028 69.8456 5.20058C70.031 5.20328 70.2153 5.17354 70.3907 5.11266C70.5411 5.06124 70.6796 4.97903 70.7979 4.87098C70.9168 4.76293 71.0125 4.63129 71.0802 4.48402C71.1533 4.32498 71.2051 4.15621 71.233 3.98259L71.5659 2.01996H70.8674L70.5399 3.90774C70.5256 3.98705 70.5054 4.06521 70.4798 4.14162C70.4549 4.2184 70.4168 4.28998 70.3675 4.35303C70.3152 4.41781 70.2498 4.47017 70.1761 4.50647C70.0833 4.54864 69.9817 4.56846 69.88 4.56446C69.7998 4.56637 69.7207 4.55305 69.6452 4.52517C69.5858 4.50221 69.5329 4.46574 69.4889 4.41851C69.4491 4.37388 69.4193 4.3209 69.4015 4.26324C69.3831 4.20276 69.3736 4.1396 69.3742 4.07614C69.3742 4.04995 69.3742 4.02001 69.3742 3.98821C69.3742 3.9573 69.3777 3.92648 69.3855 3.89653L69.707 2.02557H69.005L68.6745 3.96951C68.6745 4.01253 68.6632 4.0593 68.6578 4.10421C68.6525 4.14911 68.6561 4.18092 68.6561 4.22208L68.6578 4.23891ZM73.4206 5.12762L73.5312 4.49149H72.3476L72.7732 2.02557H72.0623L71.5308 5.12574L73.4206 5.12762ZM75.7663 4.49149H74.5821L75.0078 2.02557H74.2968L73.766 5.12574H75.6569L75.7663 4.49149Z" fill="white"/>
</svg>

<svg width="87" height="61" fill="none" xmlns="http://www.w3.org/2000/svg"><path d="M85.368 30.077c.202 1.86-2.479 4.699-4.88 4.695-1.69 0-3.833-.787-4.124-3.94-.528-5.722 3.2-9.754 3.14-10.31-.062-.557-1.113-1.102-1.697-1.038 0 0-.043.042-.119.124-.341-1.151-1.995-1.7-2.985-1.628-1.457.11-3.338 2.31-4.196 4.005a9.202 9.202 0 00-1.832.452c.443-3.322-1.001-4.131-2.457-3.973-.917.09-1.8.407-2.566.92a1.21 1.21 0 00.011-.291c-.08-.744-2.636-1.702-2.534-.744.185 1.674-4.08 7.533-5.835 13.361-.197.13-.264.114-.495.05-.877-.24-1.686-2.877-2.56-3.776 1.416-.723 6.135-5.186 6.257-7.05.044-.675-2.342-2.232-2.652-1.277-.556 1.716-3.656 6.205-5.562 7.068.847-2.945 2.33-5.562 2.31-5.748-.039-.372-1.51-.941-2.55-.776-.418.067-1.785 3.224-2.595 5.538-2.095 3.39-8.783 11.101-9.362 11.161-.422.047-.699-.999-.699-1.964 0-5.16 5.262-10.841 7.306-11.063.556-.061 1.626.873 1.524-.068-.145-1.342-1.78-2.145-2.794-2.102-4.063.17-7.67 4.797-8.824 7.487-1.484 2.572-6.607 8.774-8.344 11.043a.174.174 0 01-.312-.126c.974-7.978 8.088-15.726 8.094-16.613 0-.787-1.52-1.354-2.913-1.204-1.699.186-13.239 16.81-16.968 20.577a.271.271 0 01-.461-.186c-.31-10.1 20.677-29.494 20.813-31.096.089-1.066-2.394-1.86-3.605-1.823C21.717 10.052.123 27.664.123 31.911c0 2.046 3.594 4.723 3.573 3.406-.078-4.65 20.366-23.644 26.854-23.337-2.297 1.445-22.637 19.45-23.505 32.377-.256 3.814 3 4.759 5.221 4.759 1.513 0 3.2-.964 9.998-11.72-.199.836-.436 2.968-.388 3.427.199 1.832 2.815 2.89 4.433 2.686.816-.1 4.265-5.43 6.967-8.929-.056 2.739 1.657 5.023 5.403 4.625 1.755-.186 6.142-6.236 7.416-8.637-.32 1.345-.964 3.004-.858 3.98.046.438 3.152 2.378 2.946.455-.119-1.098.742-3.535 1.285-5.665 1.734.546 2.071 5.845 5.027 5.525l.092-.033c-.226 1.29-.37 2.368-.237 3.575.069.632.463.818.64 1.302-19.308 2.366-44.47 14.137-49.771 15.376-1.966.456-2.077-.53-2.41-.082-.915 1.205 2.157 6.261 5.11 5.84 8.575-1.22 25.889-15.096 49.935-19.194l-.185-1.064c-.312-12.649 7.63-20.733 8.45-20.056.37.314.305 1.438-.02 3.095-3.129 2.513-5.947 5.618-5.584 9 .06.558.417 2.43 2.225 2.17 2.63-.372 4.9-6.298 5.69-10.591a4.362 4.362 0 011.346-.731c-.448 1.302-.926 2.448-.926 4.228 0 .604.027 3.925 2.73 3.925.927 0 1.8-.651 2.622-1.6.345 3.012 1.669 4.576 3.395 5.69a92.809 92.809 0 00-12.176 1.916c-1.346.147-1.36 2.604-.827 2.735 12.067-2.99 18.047-2.707 19.365-2.906.61-.091.263-.815-.312-1.715 2.552-1.187 2.967-3.162 3.152-3.925.371-1.624-1.505-2.437-1.43-1.741zm-22.893 3.259c-.152.017-.263-.372-.3-.718-.149-1.37 1.37-4.135 3.337-6.633-.983 3.502-2.344 7.275-3.037 7.351zm9.189-3.752c-.269.041-.4-.413-.42-.705-.258-4.161 3.118-8.659 4.13-8.971.694-.214.985.186 1.02.505.02.205.408.043.641.186-.402.546-1.166 1.784-1.297 2.047-1.18 2.035-3.299 6.823-4.074 6.938z" fill="#fff"/><path d="M57.279.56c.637.298 1.84 3.097 1.678 4.201-.966 6.552-18.446 5.223-21.387 11.976-.87 2-2.146-.429-1.756-1.378 2.718-6.59 19.396-8.423 20.46-14.188.124-.67.54-.826 1.005-.61zm7.668 9.705a.414.414 0 01.145-.065.653.653 0 01.44.041.569.569 0 01.213.187l.48-.44a.817.817 0 00-.182-.17 1.368 1.368 0 00-.495-.2 1.551 1.551 0 00-.74.045c-.14.045-.27.114-.387.206a.943.943 0 00-.358.752c-.003.11.017.22.058.322a.712.712 0 00.153.23c.066.065.142.12.225.16.091.047.184.087.28.12.121.039.236.095.34.169a.3.3 0 01.127.254.347.347 0 01-.04.174.347.347 0 01-.106.118.44.44 0 01-.157.066.79.79 0 01-.537-.067.657.657 0 01-.263-.227l-.524.438c.062.08.136.15.218.21.086.061.179.112.277.15a1.729 1.729 0 001.072.062 1.2 1.2 0 00.4-.187.978.978 0 00.292-.322.963.963 0 00.112-.477.773.773 0 00-.216-.561 1.198 1.198 0 00-.26-.187 2.568 2.568 0 00-.35-.155 1.04 1.04 0 01-.28-.142.248.248 0 01-.1-.208.3.3 0 01.046-.17.363.363 0 01.117-.126zm1.478-.598l-.111.626h.843l-.42 2.476h.706l.426-2.476h.825l.106-.626h-2.375zm4.511 0l-.327 1.887a1.43 1.43 0 01-.058.234.69.69 0 01-.113.21.57.57 0 01-.192.153.654.654 0 01-.295.06.636.636 0 01-.235-.04.412.412 0 01-.158-.106.43.43 0 01-.087-.155.602.602 0 01-.027-.187v-.088a.805.805 0 01.01-.092l.324-1.87h-.703l-.332 1.945c0 .043-.01.088-.014.135-.004.046 0 .09 0 .13a.972.972 0 00.082.405.833.833 0 00.238.303c.112.086.24.15.374.187.161.047.327.07.493.067.186.004.37-.026.546-.088a1.199 1.199 0 00.689-.62c.074-.158.125-.327.153-.5l.33-1.961-.698-.01zm3.273.3a1.301 1.301 0 00-.456-.227 1.821 1.821 0 00-.507-.073h-1.117l-.53 3.102h1.23c.249.002.495-.041.728-.128a1.66 1.66 0 00.968-.922c.095-.237.142-.492.137-.748a1.277 1.277 0 00-.129-.597c-.08-.16-.192-.3-.33-.408l.006.002zm-.345 1.497a1.003 1.003 0 01-.546.588 1.144 1.144 0 01-.467.09h-.455l.315-1.852h.4a.989.989 0 01.364.061.724.724 0 01.258.167.65.65 0 01.151.247c.033.096.05.197.049.3a1.23 1.23 0 01-.07.392l.001.007zm.89 1.31h.71l.531-3.1h-.71l-.532 3.1zm4.169-2.806a1.26 1.26 0 00-.459-.275 1.768 1.768 0 00-.61-.098 1.733 1.733 0 00-1.28.55 1.835 1.835 0 00-.364.601 2.07 2.07 0 00-.131.748c-.002.192.032.383.1.562a1.215 1.215 0 00.751.709c.2.066.409.099.618.095a1.703 1.703 0 001.277-.55 1.86 1.86 0 00.364-.6c.086-.236.13-.486.129-.738a1.52 1.52 0 00-.1-.56 1.228 1.228 0 00-.287-.454l-.008.01zm-.416 1.496a1.18 1.18 0 01-.197.375c-.085.11-.19.2-.313.264a.887.887 0 01-.418.099.823.823 0 01-.33-.062.698.698 0 01-.39-.414.886.886 0 01-.05-.305 1.279 1.279 0 01.269-.806c.086-.108.193-.198.314-.264a.917.917 0 01.744-.04c.09.037.172.093.24.166a.755.755 0 01.147.248c.035.098.052.2.05.304a1.424 1.424 0 01-.068.42l.002.015zm-11.675-2.63c.216-.08.413-.202.582-.361a1.64 1.64 0 00.385-.561 1.88 1.88 0 00.139-.749 1.301 1.301 0 00-.129-.598 1.19 1.19 0 00-.33-.405 1.34 1.34 0 00-.456-.23 1.887 1.887 0 00-.507-.07h-1.117l-.529 3.1h1.23c.249-.003.497-.05.73-.141l.002.015zm-.844-2.356h.395a1.05 1.05 0 01.364.06.668.668 0 01.409.415c.033.097.05.198.049.3 0 .136-.023.272-.067.4a1.012 1.012 0 01-.212.354.97.97 0 01-.334.234 1.147 1.147 0 01-.467.09h-.455l.318-1.853zm2.036 2.483h.71l.531-3.1h-.71l-.531 3.1zm2.349-2.187c.09-.108.203-.196.327-.26a.932.932 0 01.411-.097.742.742 0 01.364.086.67.67 0 01.232.213l.515-.479a1.01 1.01 0 00-.458-.342 1.72 1.72 0 00-.65-.116 1.665 1.665 0 00-.709.15 1.745 1.745 0 00-.565.41c-.163.175-.29.382-.375.609-.09.239-.134.493-.132.748-.003.193.032.384.103.562a1.229 1.229 0 00.746.694c.19.064.389.095.59.093a2.42 2.42 0 001.11-.27l.277-1.64h-1.23l-.107.6h.587l-.096.583a.753.753 0 01-.202.069 1.772 1.772 0 01-.237.024.924.924 0 01-.341-.06.723.723 0 01-.251-.166.693.693 0 01-.153-.255.935.935 0 01-.051-.316 1.31 1.31 0 01.295-.84zm1.94 2.19h.711l.53-3.103h-.71l-.53 3.102zm1.851 0h.708l.424-2.474h.825l.107-.627h-2.376l-.11.627h.842l-.42 2.473zm3.37-.62l.104.617h.747l-.571-3.1h-.702l-1.919 3.102h.81l.363-.617 1.168-.002zm-.23-1.684l.159 1.1h-.79l.632-1.1zm2.168 1.669l.424-2.466h-.711l-.53 3.1h1.89l.11-.636-1.183.002zm-12.32-4.42h1.128l.101-.598h-1.127l.114-.66h1.197l.108-.622h-1.895l-.531 3.102h.698l.207-1.221zm1.506.33a.937.937 0 00.084.402c.054.12.136.224.238.305.113.085.24.148.374.187.16.047.325.07.492.068.185.002.37-.027.545-.088a1.198 1.198 0 00.69-.629c.072-.159.124-.328.152-.501l.333-1.963h-.699l-.327 1.888c-.014.08-.035.157-.06.234a.688.688 0 01-.112.211.57.57 0 01-.488.211.632.632 0 01-.235-.039.42.42 0 01-.156-.106.419.419 0 01-.088-.156.623.623 0 01-.027-.187v-.088c0-.03.004-.062.011-.091l.322-1.871h-.702l-.33 1.944c0 .043-.012.09-.017.134-.005.045-.002.077-.002.118l.002.017zm4.763.889l.11-.637h-1.183l.425-2.465h-.71l-.532 3.1 1.89.002zm2.345-.637h-1.184l.426-2.465h-.711l-.531 3.1h1.89l.11-.635z" fill="#fff"/></svg>
